X:279
T: EIN LEBEN WIE IM PARADIES
N: B0331
O: Europa, Mitteleuropa, Deutschland
R: Trink - Lied
M: 2/4
L: 1/16
K: C
G2 | c2G2E2F2 | G3AG2
E2 | F2G2A2B2 | c4z2
e2 | d2G2A2B2 | dcBAB2
G2 | c2A2d2d2 | G4z2
d2 | d2B2B2c2 | d3ed2
G2 | c2G2E2C2 | G4z2
G2 | c2e2d2F2 | E2F2G2
A2 | A2F2D2B2 | c4z2

@@@ Tune index: 2082
